X: 2
T: Niel Gow's Lament For His Second Wife
R: waltz
M: 3/4
L: 1/8
K: Dmaj
D/B,/|"D"A,>B,D "Bm" {DC}D>ED|"A"EFA "G"B2d|"Bm"A>FD "A"{EF}E>DE|"Em7"{DE}FDB, "G" B,2D/B,/|"D"A,>B,D "Bm"{DE}D>ED|"A"EFA "G"d2c/B/|"D"A>FD "Bm"{=C}B,2 A,|"G"B, D3/2 "A"D3/2 "D"D3/2:|!|:(3A/B/c/| "D"d>fd "A"{cd}ecA|"G"{Bc}B/A/B/c/ "Bm"{Bc}d B/A/G/F/E/D/|\"D"d>fd "A"{cd}ecA|"G"B/A/B/c/{Bc}d "Bm"B/A/G/F/E/D/|"Em7"{EF}E>DE "F#m"{DE}FDB,|\|1 "D"A,B,D "D+F#" D>ED|"G"EFA "Bm"d2c/B/|"D"A>FD "Bm"{=C}B,2 "A"A,|"G" B, D3/2 D3/2 "D"[D3/2A,3/2]:|!:|2 "D"A,B,D "D+F#" D>ED|"G"EFA "Bdim"d2c/B/|"D"A>FD "G"{=C}B,2A, |"Em7"B, "Em" D3/2 "A"D3/2 "D"[D3/2A,3/2]|]


Tune 1892	Setting 1892

